X:1
T:Title
%%score 1 2 3
L:1/8
M:2/2
K:C
V:1 treble nm="Part_1"
V:2 treble-8 nm="Part_2"
V:3 treble-8 nm="Part_3"
V:1
 F8 | G8 | A8 | G8 | c8 | B8 | c8 | A8 | G8 | F6 G2 | A2 _B2 G4- | G4 ^F4 | G8- | G8 | c8 | %15
 _B4 d4 | c4 A4 | _B4 G4- | G2 F2 E2 D2 | D4 G4- | G4 A4- | A2 B2 c4 | d4 c4 | (3:2:2A4 _B2 c4 | %24
 _B4 G4- | G4 ^F4 | G8 || c8 | c8 | A8 | c8 | d8 | c8 | A8 | c8 | B8 | c8 | A8 | G8 | F8 | G4 A4- | %41
 A2 G2 G4- | G4 ^F4 | G8 || G8 | A4 c4- | c2 B2 A4 | G4 c4- | c4 B4 | c2 d2 e4 | d4 B4 | c4 A4- | %52
 A4 G4 | A8 | z4 c4 | _B6 A2 | A4 G4- | G2 E2 ^F4 | G8 || D8 | G8 | F8 | E8 | F8 | D8 | F8 | G8 | %67
 A8 | G8 | ^F4 G4- | G4 ^F4 | G8 || A8 | B4 d4- | d2 B2 A4 | G4 c4- | c4 A4- | A4 F4- | F4 D4- | %79
 D4 G4- | G4 F4 | _B8 | A4 G4- | G4 ^F4 | G8 || G8 | A8 | G8 | D8 | F8 | E8 | D8 | E8 | C8 | F8 | %95
 G8 | A8 | G8 | F4 A4- | A2 G2 G4- | G4 ^F4 | G8 || G8 | F8 | G4 D4- | D2 E2 F4- | F4 D4- | D4 C4 | %108
 D8 | z4 G4- | G4 G4 | A4 c4 | B4 d4 | c6 A2 | B6 G2 | A4 c4 | B4 G4- | G4 ^F4 | G8 || G8 | G8 | %121
 F8 | G8 | A8 | G8 | c8 | A8 | G8 | c8 | B8 | c8 | A8 | G8 | F4 G4 | A2 ^F4 E2 | G8 || _B4 d4- | %137
 d2 c2 _B4 | A4 c4 | _B4 G4- | G4 ^F4 | G8 | z4 A4- | A2 _B2 c4 | B4 G4- | G2 F2 E4 | D8 | z4 E4- | %148
 E4 F4 | G4 _B4 | A4 G4- | G2 ^F2 F2 E2 | G8 ||[M:3/2] c8 d4 | c3 _BBA A4 G2 | A4 z2 A3 B c2- | %156
 c2 d4 c3 A B2 | c4 G4 A4 | G4 F4 G2 A2- | AG FE D2 G4 ^F2 | G12 ||[M:2/2] G4 c4- | c2 A2 B4 | c8 | %164
 z4 c4- | c2 B2 A4- | A4 G4 | F8 | E4 A4- | A2 B2 c4 | B4 d4 | c6 A2 | B4 G4 | A4 G4- | G4 F4 | %175
 G8 || G8 | G8 | F8 | E8 | D8 | F8 | F8 | E4 F4- | F2 D2 D4- | D4 C4 | D8 | z4 D4 | E4 F4 | G4 G4 | %190
 A8 | G4 c4 | B4 c4 | A8 | G8 | F6 A2- | A4 G4- | G2 ^F4 E2 | G8 || d8 | B4 G4 | A8 | z4 G4 | %203
 A4 A4- | A2 G2 F4- | F4 D4- | D4 C4 | D8 | z4 F4- | F4 A4 | G4 c4- | c2 B2 A4 | G4 d4- | %213
 d2 c2 B4 | A4 c4 | B4 A4- | A2 G2 F2 E2 | D4 G4- | G4 A4- | A4 c4 | d4 _B4- | B2 A2 G4- | G4 ^F4 | %223
 G8 || G4 B4 | c4 d4 | d4 d4 | e4 d4 | c4 c4 | A4 c4 | A4 c4 | B4 c4 | A4 G4 | F2 G2 A2 F2 | G8 || %235
 G6 F2 | D4 G4- | G4 A4- | A4 B4- | B4 A4- | A4 d4- | d4 c4 | d8 | e8- | e4 c4- | c2 B2 A4 | %246
 G4 A4- | A2 G2 E4- | E8 | D4 G4- | G4 A4- | A2 B2 c4 | B6 G2 | A4 G4- | G4 ^F4 | G8 || D8 | G8 | %258
 F8 | E4 F4- | F4 D4- | D4 C4 | D8 | z8 | D8 | G8 | F8 | E8 | F8 | G8 | A8 | G8 | F8 | G4 A4- | %274
 A2 G2 G4- | G4 ^F4 | G8 || A8 | B4 d4- | d2 c2 A4 | G4 c4- | c2 B2 A4- | A2 G2 F4- | F4 F4- | %284
 F2 E2 E4- | E2 D2 D4- | D4 C4 | D8 | z4 G4- | G4 F4 | G4 _B4 | A4 G4- | G2 ^F2 F2 E2 | G8 || A8 | %295
 c8 | A8 | G8 | c8 | c8 | B8 | A8 | G8 | c8 | G8 | c8 | B8 | c8 | A8 | G8 | F8 | G4 A4- | %312
 A2 G2 G4- | G4 ^F4 | G8 || F8 | E4 A4- | A2 B2 c4 | B4 G4- | G4 c4- | c2 B2 A4- | A2 G2 G4- | %322
 G4 ^F4 | G8 | z4 G4- | G4 E4- | E8 | D4 G4- | G4 A4- | A2 B2 c4 | B6 G2 | A2 B2 G4- | G4 ^F4 | %333
 G8 || c8 | A8 | c8 | B8 | c8 | A8 | G8 | A8 | G4 F4- | F4 E4 | F8 | z4 G4- | G4 A4- | A4 B4 | c8 | %349
 B8 | c8 | A8 | G8 | A8 | G8 | F6 G2 | A2 _B2 G4- | G4 ^F4 | G8 || E8 | F4 A4- | A2 G2 E4 | %362
 D4 G4- | G4 A4- | A2 _B2 c4- | c4 _B4 | A4 F4- | F2 E2 E2 D2 | F4 c4 | B4 d4 | c6 B2 | B2 A2 A4- | %372
 A4 G4 | A8 | z4 c4 | _B4 G4- | G4 F4 | G4 _B4 | A2 G2 F2 E2 | D4 G4- | G2 F2 F2 E2 | G8 || G8 | %383
 d8 | d8 | f8 | d8 | c8 | d8 | c8 | B8 | A8 | c4 d4- | d2 ^c2 c2 B2 | d8 | z8 | G4 d4 | d4 f4- | %398
 f4 d4 | c4 d4- | d4 c4 | B8 | A8 | c8 | d8 | c8 | B8 | c8 | A8 | G8 | F8 | G4 A4- | A2 G2 G4- | %413
 G4 ^F4 | G8 || d6 c2 | B4 A4- | A4 d4- | d4 c4 | d4 f4 | e4 c4- | c2 B2 B2 A2 | c4 A4- | %423
 A2 G2 G2 F2 | A8- | A4 G4 | F4 _B4- | B2 c2 d4- | d2 e2 f4- | f2 e2 d4- | d2 c2 c4- | c4 B4 | %432
 c2 _B2 A2 G2 | F4 _B4- | B2 A2 A4- | A4 G4 | A8 | G4 A2 c2- | c2 B2 B2 A2 | c8 | d8 | c4 A4- | %442
 A2 B2 c4 | B2 c2 d2 B2 | c2 A2 A4- | A2 G2 G4- | G4 ^F4 | G8 ||[M:2/2] A8- | A8 | c8- | c8 | B8- | %453
 B8 | c8 | d8- | d8 | A8 | A8 | G8 | F8 | z8 | A8 | A6 B2 | c6 B2 | G4 A4- | A2 G2 G4- | G4 ^F4 | %468
 G8 |] %469
V:2
 f8 | e4 c4- | c4 A4 | B4 c4- | c4 A4 | G8 | F8 | z4 c4- | c2 B2 c4 | d8 | c4 B4 | A8 | G8 | z8 | %14
 F8 | G8 | A8 | G8 | c8 | B8 | c8 | A8 | G8 | F8 | G4 _B4 | A8 | G8 || e8- | e4 c4- | c4 f4 | %30
 e4 f4- | f4 d4 | e4 c4 | z4 c4 | A4 F4 | G8 | F8 | z4 A4 | B4 c4 | d8 | c8 | d4 B4 | A8 | G8 || %44
 c8 | c8 | A8 | c8 | d8 | c8 | G8 | c8 | B8 | c8 | A8 | G8 | F4 _B4 | A8 | G8 || d8 | B4 G4 | %61
 A4 B4 | c8 | A4 d4- | d2 c2 B4 | A4 d4 | B4 c4- | c4 d4 | e4 c4 | d4 B4 | A8 | G8 || D8 | G8 | %74
 F8 | E8 | F8 | D8 | F8 | G8 | A8 | G8 | F4 G4 | A8 | G8 || c8- | c4 d4 | B4 G4- | G8 | D4 A4 | %90
 G4 c4- | c2 B2 B2 A2 | c4 G4 | A8 | z4 d4 | B4 c4- | c4 f4 | e4 c4 | d8 | c4 B4 | A8 | G8 || G8 | %103
 A8 | G8 | D8 | F8 | E8 | D8 | E8 | C8 | F8 | G8 | A8 | G8 | F8 | G8 | A8 | G8 || c8 | B4 c4 | d8 | %122
 B4 c4- | c4 f4 | e4 c4- | c4 A4- | A2 B2 c4 | B4 G4 | A8 | G8 | F8 | z4 c4 | B4 c4 | d4 B4 | A8 | %135
 G8 || G8 | G8 | F8 | G8 | A8 | G8 | c8 | A8 | G8 | c8 | B8 | c8 | A8 | G8 | F4 G4 | A8 | G8 || %153
[M:3/2] e6 f4 g2 | e2 c2 d4 _B4 | F8 f4 | e2 f2 g2 e2 d4 | c8 z2 f2 | e2 c2 d4 B2 A2 | %159
 d3 c BA G2 A4 | G12 ||[M:2/2] c8 | d8 | c8 | A8 | A8 | c8 | d8 | c8 | c8 | G8 | A8 | G8 | F4 G4 | %174
 A8 | G8 || G6 A2 | B4 c4 | A4 d4- | d4 c4 | f6 e2 | d2 c2 d4- | d2 c2 A4 | G4 A4- | A4 F4 | E8 | %186
 z4 D4 | E4 F4 | G4 A4 | G4 c4- | c2 B2 c2 d2 | e6 c2 | d4 c4 | z4 f4 | e2 e4 c2 | d8 | c4 B4 | %197
 A8 | G8 || G8 | G8 | F8 | E8 | D8 | F8 | F8 | E8 | F8 | D8 | D8 | E8 | F8 | G8 | G8 | A8 | A8 | %216
 c8 | B8 | c8 | A8 | G8 | F4 G4 | A8 | G8 || g4 f2 e2- | e2 e2 d4 | z2 g4 g2- | g2 a2 f2 d2 | %228
 e2 f3 e c2- | c2 d2 c2 f2- | fc f2 e2 c2 | d4 c2 f2- | f2 d4 c2 | d2 B2 A4 | G8 || G8 | B8 | c8 | %238
 d8 | d8 | d8 | e8 | d8 | c8 | c8 | A8 | c8 | A8 | c8 | B8 | c8 | A8 | G8 | F4 G4 | A8 | G8 || d8 | %257
 B4 c4 | (3:2:2A8 F4 | G4 A4 | D8 | E8 | D8- | D8 | z4 G4- | G2 A2 B4 | A4 d4- | d4 c4 | d8 | e8 | %270
 f8 | e4 c4 | d8 | B4 A4 | c8 | A8 | G8 || D8 | G8 | F8 | E8 | F8 | D8 | D8 | G8 | F8 | E8 | F8 | %288
 G8 | A8 | G8 | F4 G4 | A8 | G8 || d8 | c4 f4- | f2 c2 f4 | e4 c4- | c2 B2 A2 G2 | A4 F4 | G8 | %301
 F4 f4- | f2 e2 e2 d2 | f4 c4 | z4 c4- | c2 d2 e2 f2 | g8 | e4 f4- | f2 c2 d4 | e4 c4 | %310
 (3:2:2d4 c2 A4 | G4 F4 | G8 | A8 | G8 || A8 | c8 | A8 | G8 | c8 | c8 | B8 | A8 | G8 | c8 | G8 | %326
 c8 | B8 | c8 | A8 | G8 | F4 G4 | A8 | G8 || e8 | f8 | e4 c4 | d8 | c8 | z4 f4- | f4 e4 | f4 c4- | %342
 c4 A4 | G8 | F8 | c8- | c8 | z4 d4 | c2 d2 e2 f2 | g8 | e4 f4- | f2 c2 f4 | e4 c4- | c4 d4 | %354
 G2 A2 B2 c2 | d8 | c4 _B4 | A8 | G8 || c8 | A8 | c8 | B8 | c8 | A8 | G8 | A8 | G8 | F8 | G8 | A8 | %371
 c8 | B8 | c8 | A8 | G8 | A8 | G8 | F8 | G4 _B4 | A8 | G8 || g8- | g8 | f4 d4- | d4 f4- | f4 g4 | %387
 a8 | f6 d2 | e4 f4 | g2 e4 d2 | f2 g2 a4- | a2 g2 f4 | e8 | d4 z4 | G4 d4 | e4 d2 g2- | gd g2 a4 | %398
 d2 f4 g2 | e4 d2 g2- | gd g2 e2 c2 | d3 B d3 e | f8 | z4 e4 | f4 g4 | a2 e4 f2 | g3 f d4 | %407
 c4 f4- | f2 d4 Bc | c8 | d8 | c8 | B4 c4 | A8 | G8 || G8 | d8 | d8 | f8 | d8 | c8 | d8 | c8 | %423
 _B8 | A8 | c8 | d8 | G8 | d8 | d8 | f8 | d8 | c8 | d8 | c8 | _B8 | A8 | c8 | d8 | c8 | B8 | c8 | %442
 A8 | G8 | F8 | G8 | A8 | G8 ||[M:2/2] d8 | c4 f4 | e4 c4- | c2 e4 f2 | g4 d2 g2- | gf g2 d2 g2 | %454
 e2 a3 g e2 | d4 g4- | g2 f2 d4- | d2 A2 d4- | d2 c2 A4 | B4 c4 | d8- | d8 | z4 c4 | d4 f4 | %464
 e4 c4- | c2 B2 c4 | d4 B4 | A8 | G8 |] %469
V:3
 F8 | C8 | F8 | E4 C4- | C4 c4 | d4 e4 | f8 | F8 | E8 | D8 | F4 G4 | D8 | d8 | z8 | A8 | d4 _B4 | %16
 A4 F4 | G2 F2 E2 D2 | C8 | G8 | C4 F4- | F4 c4 | _B4 d4- | d2 c2 A4 | G8 | D8 | d8 || A8- | A8 | %29
 F8 | C4 F4 | D4 G4 | C8 | c4 e4- | e2 de f4- | f4 e4 | f8 | F8 | G4 E4 | D8 | E4 F4- | F4 G4 | %42
 D8 | E3 C C4 || C8 | F8- | F8 | C8 | G8 | C8 | z4 G4 | A8 | E8 | A8 | F8 | z4 G4 | D4 E4 | D8 | %58
 d8 || D8 | E8 | D8 | C8 | D8 | G8 | D8 | E4 C4 | F8 | C4 E4 | D4 G4 | D8 | d8 || d8- | d4 B4 | %74
 A2 B2 c2 d2 | e8 | c8 | d8 | A8 | G4 E4 | D8 | d8- | d8 | D8 | E4 C4 || C8 | F4 D4 | G6 A2 | B8 | %89
 A4 D4 | E4 C4 | G8 | C8 | F8 | D8 | E4 C4 | F8 | C4 E4 | D4 F4- | F4 G4 | D8 | d8 || G4 E4 | D8 | %104
 z4 G4 | A4 d4 | c4 A4- | A4 G4 | A8 | G3 A B3 c | c8- | c4 A4 | d4 B4 | A8 | z4 E4 | F4 A4 | %116
 G4 E4 | D8 | d8 || C8 | G4 E4 | D8 | E4 C4 | F8 | c8 | A4 F4 | c2 d2 e4 | d8 | z4 c4 | d4 e4 | %130
 f8 | F8 | G4 E4 | D4 G4 | D8 | d8 || d4 _B4- | B2 c2 d4- | d2 c2 A4 | G4 E4 | D8 | E4 C4- | %142
 C4 F4- | F8 | G4 E4- | E2 D2 C4 | G8 | C8 | z4 D4 | E4 G4 | D4 E4 | D8 | d8 || %153
[M:3/2] A6 F2 _B2 G2 | c2 e2 f4 d4 | c2 A3 B c2 F4 | c2 B4 c2 G4 | C4 z2 c2 F4 | C2 E2 D4 E2 F2 | %159
 D4 G2 E2 D4 | E6 C6 ||[M:2/2] C8 | F8 | C8 | F8- | F8 | F4 E4 | D8 | A8 | F4 c4 | d4 B4 | c8 | %172
 d4 e4 | f4 d4- | d2 c2 c2 B2 | d8 || G6 F2 | E2 D2 C4 | D8 | A8 | D8 | z4 D4- | D8 | E4 D4- | D8 | %185
 G4 z4 | (3:2:2D4 E2 F4 | G4 (3:2:2A4 G2 | E4 D4 | E4 C4 | F8 | C8 | G4 A4- | A2 F6 | C4 E4 | %195
 D6 F2- | F4 G4 | D8 | d8 || B6 c2 | d4 B4 | c4 A4 | B4 c4 | d8 | c4 A4 | D8 | z4 G4 | %207
 A4 (3:2:2D4 E2 | (3:2:2F4 G2 A4- | A4 F4 | C8 | c8 | B4 G2 B2- | B2 c2 d4 | c2 A4 F2 | %215
 G2 F2 E2 D2 | C8 | G8 | C4 F4- | F2 G2 A4 | _B4 G4 | D4 E4 | D8 | d8 || G6 F2 | A4 D2 G2- | %226
 G4 G4 | c2 A2 d2 B2 | c2 A2 F4 | z4 F4- | F4 C4 | G4 A4 | F4 E4 | D2 G2 D4 | d8 || G8- | G8 | %237
 E4 F4 | D4 G4- | G4 F4 | D8 | A8 | D8 | A8 | F8- | F8 | F8 | C8 | C8 | G8 | C4 F4- | F8 | G4 E4 | %253
 D4 E4 | D8 | d8 || D8 | E4 C4 | D8 | E4 D4- | D4 A4- | A4 G4 | A8 | d6 c2 | B2 A2 B4- | B2 A2 G4 | %266
 D8 | A8 | D8 | C8 | F8 | C4 E4 | D8 | E4 F4- | F2 E2 C4 | D8 | d8 || d8- | d4 B4 | A3 B c2 d2 | %280
 e8 | A8 | d6 c2 | A8 | z4 B4 | c4 A4- | A4 G4 | A6 GF | E8 | D8 | z4 G4 | D4 E4 | D8 | d8 || D8 | %295
 A4 F4 | F8 | c4 e4- | e2 d2 e4 | c4 f4- | f4 e4 | f4 F4 | c8 | F8 | c8 | A8 | G8 | A4 F4- | F8 | %309
 E8 | D8 | G4 D4 | E8 | D8 | d8 || D8 | C4 F4- | F8 | G2 F2 E2 D2 | C8 | F8 | z4 G4 | D8 | E8 | %324
 C8 | z4 C4 | C8 | G8 | C4 F4- | F8 | G4 E4 | D4 E4 | D8 | d8 || A8 | F4 D4 | C8 | G8 | A8 | F8 | %340
 c8 | F8 | E4 F4 | C8 | D8 | C8 | z4 F4 | C4 G4 | A8 | G8 | C4 F4- | F8 | C8 | F4 D4 | E8 | D6 E2 | %356
 F2 E2 G4 | D8 | E4 C4 || C8 | D4 F4- | F2 E2 C4 | G8 | C4 F4- | F8 | E8 | F4 (3:2:2D4 F2 | C8 | %368
 c4 A4 | d4 B4 | c4 F4 | F8 | z4 G4 | F8- | F8 | G4 E4 | D8 | z4 d4- | d2 c2 A4 | _B4 G4 | D8 | %381
 d8 || G8- | G8 | D8 | z4 d4- | d4 B4 | A8 | D8 | A8 | G8 | F8- | F4 D4 | A8 | D4 G4 | d4 G4 | %396
 c3 B G4- | G4 D4 | z2 d4 G2 | A4 B2 G2- | G4 A4 | G4 z2 G2 | D3 E F3 E | C4 c4 | B8 | A8 | G8 | %407
 A4 F4- | F8 | E8 | D8 | E4 F4 | G4 C4 | D8 | d8 || G8- | G4 F4 | D8 | z4 A4 | _B8 | c4 A4 | G8 | %422
 A4 F4 | G8 | D4 F4- | F4 E4 | D4 G4 | z4 G4- | G2 F2 D4- | D8 | z8 | G8 | A4 F4 | D4 G4 | A4 F4 | %435
 G8 | D4 E4 | C8 | G8 | z4 A4 | G8 | C4 F4- | F4 c4 | d6 e2 | f8 | d8 | c8 | d8 ||[M:2/2] D8 | F8 | %450
 C8 | c4 A4 | G8 | z4 G4 | A8 | B4 G4- | G2 D2 G4 | F4 D4- | D2 E2 F4 | G4 E4 | D4 z4 | D6 E2 | %462
 F2 G2 A4 | F4 D4 | C8 | z4 F4- | F4 G4 | D8 | d8 |] %469

